X:2085
L:1/8
Q:1/4=120
M:2/4
K:D
"^Moderate" DD A/B/A/F/ | AD d>B | AD A/B/A | [A,E]>[B,E] [=CE]>[EE] | DD A/B/A/F/ | AA/B/ d>f | 
 ed/B/ d/B/A/F/ |{EF} E2 =C2 :: e>d ea/f/ |{fg} fe/d/ [^ce]>[AA] | d>e fa/f/ |{fg} fe/f/ d>A | 
 d>e fa/f/ | e>d e/f/a/f/ | fe/f/ d>f | ed/B/ d/B/A/F/ |{EF} E2 =C2 :|

